priv/static/svgs/country_flags/EC.svg

<?xml version="1.0" encoding="UTF-8"?>
<svg id="item" width="21px" height="15px" viewBox="0 0 21 15" version="1.1" xmlns="http://www.w3.org/2000/svg" xmlns:xlink="http://www.w3.org/1999/xlink">
    <defs>
        <linearGradient x1="50%" y1="0%" x2="50%" y2="100%" id="linearGradient-1">
            <stop stop-color="#FFFFFF" offset="0%"></stop>
            <stop stop-color="#F0F0F0" offset="100%"></stop>
        </linearGradient>
        <linearGradient x1="50%" y1="0%" x2="50%" y2="100%" id="linearGradient-2">
            <stop stop-color="#0748AE" offset="0%"></stop>
            <stop stop-color="#003993" offset="100%"></stop>
        </linearGradient>
        <linearGradient x1="50%" y1="0%" x2="50%" y2="100%" id="linearGradient-3">
            <stop stop-color="#DE2035" offset="0%"></stop>
            <stop stop-color="#CE1126" offset="100%"></stop>
        </linearGradient>
        <linearGradient x1="50%" y1="0%" x2="50%" y2="100%" id="linearGradient-4">
            <stop stop-color="#FFD935" offset="0%"></stop>
            <stop stop-color="#FDD216" offset="100%"></stop>
        </linearGradient>
        <linearGradient x1="50%" y1="0%" x2="50%" y2="100%" id="linearGradient-5">
            <stop stop-color="#FBDC44" offset="0%"></stop>
            <stop stop-color="#FFDC32" offset="100%"></stop>
        </linearGradient>
    </defs>
    <g id="Symbols" stroke="none" stroke-width="1" fill="none" fill-rule="evenodd">
        <g id="EC">
            <rect id="FlagBackground" fill="url(#linearGradient-1)" x="0" y="0" width="21" height="15"></rect>
            <rect id="Rectangle-2" fill="url(#linearGradient-2)" x="0" y="7" width="21" height="4"></rect>
            <rect id="Rectangle-2" fill="url(#linearGradient-3)" x="0" y="11" width="21" height="4"></rect>
            <rect id="Rectangle-2" fill="url(#linearGradient-4)" x="0" y="0" width="21" height="7"></rect>
            <path d="M9.29996095,6 C8.81420448,6.36488433 8.5,6.94580754 8.5,7.60011714 C8.5,8.70468664 9.3954305,9.60011714 10.5,9.60011714 C11.6045695,9.60011714 12.5,8.70468664 12.5,7.60011714 C12.5,6.94580754 12.1857955,6.36488433 11.700039,6 L11,8.10011714 L10,8.10011714 L9.29996095,6 Z" id="Oval-12" fill="url(#linearGradient-5)"></path>
            <polygon id="Rectangle-483" fill="#5FC0DC" points="10.5 5.5 11 8 10 8"></polygon>
            <path d="M9.6767767,3.8232233 C9.60981862,3.75626523 9.51077674,3.73288462 9.42094306,3.76282918 L7.92094306,4.26282918 C7.78995723,4.30649112 7.71916723,4.44807111 7.76282918,4.57905694 C7.80649112,4.71004277 7.94807111,4.78083277 8.07905694,4.73717082 L9.43247731,4.2860307 L10.3232233,5.1767767 C10.4208544,5.27440777 10.5791456,5.27440777 10.6767767,5.1767767 L11.5675227,4.2860307 L12.9209431,4.73717082 C13.0519289,4.78083277 13.1935089,4.71004277 13.2371708,4.57905694 C13.2808328,4.44807111 13.2100428,4.30649112 13.0790569,4.26282918 L11.5790569,3.76282918 C11.4892233,3.73288462 11.3901814,3.75626523 11.3232233,3.8232233 L10.5,4.64644661 L9.6767767,3.8232233 Z" id="Line" fill="#3F2821" fill-rule="nonzero" opacity="0.66"></path>
        </g>
    </g>
</svg>

<svg width="21" height="15" viewBox="0 0 21 15" xmlns="http://www.w3.org/2000/svg"><defs><linearGradient x1="50%" y1="0%" x2="50%" y2="100%" id="a"><stop stop-color="#FFF" offset="0%"/><stop stop-color="#F0F0F0" offset="100%"/></linearGradient><linearGradient x1="50%" y1="0%" x2="50%" y2="100%" id="b"><stop stop-color="#0748AE" offset="0%"/><stop stop-color="#003993" offset="100%"/></linearGradient><linearGradient x1="50%" y1="0%" x2="50%" y2="100%" id="c"><stop stop-color="#DE2035" offset="0%"/><stop stop-color="#CE1126" offset="100%"/></linearGradient><linearGradient x1="50%" y1="0%" x2="50%" y2="100%" id="d"><stop stop-color="#FFD935" offset="0%"/><stop stop-color="#FDD216" offset="100%"/></linearGradient><linearGradient x1="50%" y1="0%" x2="50%" y2="100%" id="e"><stop stop-color="#FBDC44" offset="0%"/><stop stop-color="#FFDC32" offset="100%"/></linearGradient></defs><g fill="none" fill-rule="evenodd"><path fill="url(#a)" d="M0 0h21v15H0z"/><path fill="url(#b)" d="M0 7h21v4H0z"/><path fill="url(#c)" d="M0 11h21v4H0z"/><path fill="url(#d)" d="M0 0h21v7H0z"/><path d="M9.3 6a2 2 0 1 0 2.4 0L11 8.1h-1L9.3 6Z" fill="url(#e)"/><path fill="#5FC0DC" d="M10.5 5.5 11 8h-1z"/><path d="M9.677 3.823a.25.25 0 0 0-.256-.06l-1.5.5a.25.25 0 1 0 .158.474l1.353-.451.891.89a.25.25 0 0 0 .354 0l.89-.89 1.354.451a.25.25 0 1 0 .158-.474l-1.5-.5a.25.25 0 0 0-.256.06l-.823.823-.823-.823Z" fill="#3F2821" fill-rule="nonzero" opacity=".66"/></g></svg>
